svgs/sharp-thin/hexagon-exclamation.svg

<svg xmlns="http://www.w3.org/2000/svg" viewBox="0 0 512 512"><!--! Font Awesome Pro 6.6.0 by @fontawesome - https://fontawesome.com License - https://fontawesome.com/license (Commercial License) Copyright 2024 Fonticons, Inc. --><path d="M18.4 256L137.3 48l237.4 0L493.6 256 374.7 464l-237.4 0L18.4 256zM128 32L0 256 128 480l256 0L512 256 384 32 128 32zm136 96l-16 0 0 8 0 160 0 8 16 0 0-8 0-160 0-8zM240 336l0 32 32 0 0-32-32 0z"/></svg>

<svg xmlns="http://www.w3.org/2000/svg" viewBox="0 0 512 512"><!--! Font Awesome Pro 6.5.2 by @fontawesome - https://fontawesome.com License - https://fontawesome.com/license (Commercial License) Copyright 2024 Fonticons, Inc. --><path d="M18.4 256L137.3 48H374.7L493.6 256 374.7 464H137.3L18.4 256zM128 32L0 256 128 480H384L512 256 384 32H128zm136 96H248v8V296v8h16v-8V136v-8zM240 336v32h32V336H240z"/></svg>
